images/blood-tube01.svg

<svg fill="none" height="44" viewBox="0 0 44 44" width="44" xmlns="http://www.w3.org/2000/svg"><path d="m7.92249 19.4285v18.1853c0 3.0524 2.47211 5.5269 5.52161 5.5269 3.0494 0 5.5214-2.4745 5.5214-5.5269v-18.1853z" fill="#f5bf2f"/><g fill="#fff"><path d="m20.7899 3.5903h-1.5481v-2.730925c0-.474633-.3847-.859375-.8594-.859375h-10.36591c-.47463 0-.85937.384742-.85937.859375v2.730925h-1.0591c-.47463 0-.85937.38474-.85937.85937v4.02042c0 .47463.38474.85937.85937.85937h.96499v28.28964c0 3.5185 2.8625 6.3809 6.38089 6.3809 3.5183 0 6.3808-2.8625 6.3808-6.3809v-28.28964h.965c.4747 0 .8594-.38474.8594-.85937v-4.02042c.0002-.47463-.3846-.85937-.8592-.85937zm-11.91403-1.87155h8.64733v1.87155h-8.64733zm9.23033 35.90035c0 2.5708-2.0914 4.6621-4.6622 4.6621-2.5707 0-4.66206-2.0913-4.66206-4.6621v-28.28964h9.32426zm1.8243-30.00839h-12.9731v-2.30166h12.9731z"/><path d="m36.2934 14.6516h-11.2071c-1.3608 0-2.4679 1.1068-2.4679 2.4673v8.7163c0 1.1166.7459 2.0624 1.7656 2.3655l.2368.9892c.0655.2736.2607.4977.5226.6001.1013.0396.2075.0591.3132.0591.1679 0 .3345-.0491.478-.1451l2.0947-1.4016h8.2641c1.3608 0 2.4678-1.1068 2.4678-2.4673v-8.7162c.0001-1.3605-1.107-2.4673-2.4678-2.4673zm.7492 11.1836c0 .4127-.3361.7485-.7491.7485h-8.5251c-.1702 0-.3365.0505-.4779.1451l-1.2856.8602-.0828-.346c-.0926-.3866-.4382-.6592-.8357-.6592-.4131 0-.7492-.3358-.7492-.7485v-8.7164c0-.4128.3361-.7485.7492-.7485h11.2071c.4131 0 .7491.3357.7491.7485z"/><path d="m33.8257 19.2009c-.372-.2947-.9124-.2322-1.2073.1397l-2.241 2.8278-1.2414-1.1478c-.3486-.3222-.8922-.3008-1.2144.0476-.3222.3486-.3009.8922.0476 1.2144l1.9224 1.7772c.1593.1474.3679.2284.5834.2284.022 0 .0441-.0009.0663-.0026.2386-.0185.4586-.1355.6072-.323l2.817-3.5546c.2948-.3718.2322-.9124-.1398-1.2071z"/></g></svg>

<svg width="44" height="44" viewBox="0 0 44 44" fill="none" xmlns="http://www.w3.org/2000/svg">
<path d="M7.92249 19.4285V37.6138C7.92249 40.6662 10.3946 43.1407 13.4441 43.1407C16.4935 43.1407 18.9655 40.6662 18.9655 37.6138V19.4285H7.92249Z" fill="#F5BF2F"/>
<path d="M20.7899 3.5903H19.2418V0.859375C19.2418 0.384742 18.8571 0 18.3824 0H8.01649C7.54186 0 7.15712 0.384742 7.15712 0.859375V3.5903H6.09802C5.62339 3.5903 5.23865 3.97504 5.23865 4.44967V8.47009C5.23865 8.94472 5.62339 9.32946 6.09802 9.32946H7.06301V37.6191C7.06301 41.1376 9.92551 44 13.4439 44C16.9622 44 19.8247 41.1375 19.8247 37.6191V9.32946H20.7897C21.2644 9.32946 21.6491 8.94472 21.6491 8.47009V4.44967C21.6493 3.97504 21.2645 3.5903 20.7899 3.5903ZM8.87587 1.71875H17.5232V3.5903H8.87587V1.71875ZM18.1062 37.6191C18.1062 40.1899 16.0148 42.2812 13.444 42.2812C10.8733 42.2812 8.78194 40.1899 8.78194 37.6191V9.32946H18.1062V37.6191ZM19.9305 7.61071H6.9574V5.30905H19.9305V7.61071Z" fill="white"/>
<path d="M36.2934 14.6516H25.0863C23.7255 14.6516 22.6184 15.7584 22.6184 17.1189V25.8352C22.6184 26.9518 23.3643 27.8976 24.384 28.2007L24.6208 29.1899C24.6863 29.4635 24.8815 29.6876 25.1434 29.79C25.2447 29.8296 25.3509 29.8491 25.4566 29.8491C25.6245 29.8491 25.7911 29.8 25.9346 29.704L28.0293 28.3024H36.2934C37.6542 28.3024 38.7612 27.1956 38.7612 25.8351V17.1189C38.7613 15.7584 37.6542 14.6516 36.2934 14.6516ZM37.0426 25.8352C37.0426 26.2479 36.7065 26.5837 36.2935 26.5837H27.7684C27.5982 26.5837 27.4319 26.6342 27.2905 26.7288L26.0049 27.589L25.9221 27.243C25.8295 26.8564 25.4839 26.5838 25.0864 26.5838C24.6733 26.5838 24.3372 26.248 24.3372 25.8353V17.1189C24.3372 16.7061 24.6733 16.3704 25.0864 16.3704H36.2935C36.7066 16.3704 37.0426 16.7061 37.0426 17.1189V25.8352Z" fill="white"/>
<path d="M33.8257 19.2009C33.4537 18.9062 32.9133 18.9687 32.6184 19.3406L30.3774 22.1684L29.136 21.0206C28.7874 20.6984 28.2438 20.7198 27.9216 21.0682C27.5994 21.4168 27.6207 21.9604 27.9692 22.2826L29.8916 24.0598C30.0509 24.2072 30.2595 24.2882 30.475 24.2882C30.497 24.2882 30.5191 24.2873 30.5413 24.2856C30.7799 24.2671 30.9999 24.1501 31.1485 23.9626L33.9655 20.408C34.2603 20.0362 34.1977 19.4956 33.8257 19.2009Z" fill="white"/>
</svg>
